X: 22
T:Trip To Bengall,A. WCa.22
M:C|
L:1/8
Q:200
S:Wm. Calvert MS, 1812, Leyburn, Yorks.
R:Country Dance
O:England
A:North Yorkshire
N:Last repeat missing in MS...CGP..
Z:vmp.Chris Partington, May 2003
K:G
gdBG cAB2|gdBG AFG2|gdBG FAc2|Bedcd2d2::!
dBBd ecc2|cAAc dBB2|BGg2dBg2|ecBAG2G2:||
